outputs/icons/editor/italic_round.svg

<svg xmlns="http://www.w3.org/2000/svg" width="1200" height="1200" fill="none"><g clip-path="url(#a)"><path fill="#000" d="M500 275c0 41.5 33.5 75 75 75h35.5l-171 400H375c-41.5 0-75 33.5-75 75s33.5 75 75 75h250c41.5 0 75-33.5 75-75s-33.5-75-75-75h-35.5l171-400H825c41.5 0 75-33.5 75-75s-33.5-75-75-75H575c-41.5 0-75 33.5-75 75"/></g><defs><clipPath id="a"><path fill="#fff" d="M0 0h1200v1200H0z"/></clipPath></defs></svg>

<svg width="1200" height="1200" viewBox="0 0 1200 1200" fill="none" xmlns="http://www.w3.org/2000/svg"><g clip-path="url(#clip0_238_247)"><path d="M500 275C500 316.5 533.5 350 575 350H610.5L439.5 750H375C333.5 750 300 783.5 300 825C300 866.5 333.5 900 375 900H625C666.5 900 700 866.5 700 825C700 783.5 666.5 750 625 750H589.5L760.5 350H825C866.5 350 900 316.5 900 275C900 233.5 866.5 200 825 200H575C533.5 200 500 233.5 500 275Z" fill="#1D1E23"/></g><defs><clipPath id="clip0_238_247"><path width="24" fill="white" d="M0 0H1200V1200H0V0z"/></clipPath></defs></svg>
